X:1     %Music
T:The Garden Gate
B:Broadwood, L, 1893, English County Songs, London, Leadenhall Press
S:Words and tune from Mr F Scarlett Potter, Halford, Shipston-on-Stow
Z:Lucy Broadwood
F:http://www.folkinfo.org/songs
M:6/8     %Meter
L:1/8     %
K:G
D |G2 A B2 c |d2 B G2 B |c A2 G2 F | G3- G z
w:The day was gone, the moon shone bright, The vil-lage clock struck eight,  
 D |(G2 A) (B2 c) |d2 B G2 B |c2 A (G2 F) | G3- G z
w:Young Ma-ry hast-ened with de-light Un-to the gar-den gate.  
 B |c2 A A2 (d/c/) |B2 G G2 (G/F/) |E2 E A2 (A/G/) | F2 E D2
w:But what was there to_ make her sad? The_ gate was there but_ not the lad;
 D |G2 A (B2 A) |B2 c d2 c |BAG d2 c | B2 A G2  |]
w: Which made poor Ma-ry say and sigh, "Was ev-er poor girl so used as I?" 